X:18
T:Suite complète (intro, x3, x3, pont, x3)
R: jig
M: 6/8
L: 1/8
Q:3/8=100
K:D
| A6 | A3 A3 |
%
|: A3- A2A- | A6- | A2A- A3 | A2A- A3 :|
%
|: AFD A,DF | Adf a2a | gfe dcB | ABA GFE |
   AFD A,DF | Adf a2a | gfe cAa |1 fdd d3 :|2 fdd d2e
|: f2f fga | g2g gef | gfe dcB | AaA a2g |
   f2f fga | g2g gef | gfe cAa |1 fdd d2e :|2 fdd d3 ||
%
|: AFD A,DF | Adf a2a | gfe dcB | ABA GFE |
   AFD A,DF | Adf a2a | gfe cAa |1 fdd d3 :|2 fdd d2e
|: f2f fga | g2g gef | gfe dcB | AaA a2g |
   f2f fga | g2g gef | gfe cAa |1 fdd d2e :|2 fdd d3 ||
%
|: AFD A,DF | Adf a2a | gfe dcB | ABA GFE |
   AFD A,DF | Adf a2a | gfe cAa |1 fdd d3 :|2 fdd d2e
|: f2f fga | g2g gef | gfe dcB | AaA a2g |
   f2f fga | g2g gef | gfe cAa |1 fdd d2e :|2 fdd d3 ||
%
% The lilting fisherman
%
K:G
|: dBG GBd | g2g ege | dBG GFG | AFD cBc |
   dBG GBd | g2g ege | dBG FGA |1 BGF G3 :|2 BGF G2B |
K:D
|: A3 AFA | f2f f2e | dce dcB | AFF F2G |
   A2A DFA | B3 B2d | c2c ABc |1 dfe dcB :|2 dfe d3 ||
%
K:G
|: dBG GBd | g2g ege | dBG GFG | AFD cBc |
   dBG GBd | g2g ege | dBG FGA |1 BGF G3 :|2 BGF G2B |
K:D
|: A3 AFA | f2f f2e | dce dcB | AFF F2G |
   A2A DFA | B3 B2d | c2c ABc |1 dfe dcB :|2 dfe d3 ||
%
K:G
|: dBG GBd | g2g ege | dBG GFG | AFD cBc |
   dBG GBd | g2g ege | dBG FGA |1 BGF G3 :|2 BGF G2B |
K:D
|: A3 AFA | f2f f2e | dce dcB | AFF F2G |
   A2A DFA | B3 B2d | c2c ABc |1 dfe dcB :|2 dfe d3 ||
%
% Pont mum's Jig (8 mesures)
%
|: A3 A3 | A3 A3 | A3 A3 | A3 A3 :|
%
% Mum's Jig
%
K:Ador
|: EAA ABc | B2A A2G | EAA ABc | B2B BAG |
   EAA ABc | B2A Agf | g2g gfe | dBG BAG :|
|: AaA g2g | fed edB | AaA g3 | BAG BAG |
   AaA g2g | fed edB | ABc Bcd | cde dBG :|
%
|: EAA ABc | B2A A2G | EAA ABc | B2B BAG |
   EAA ABc | B2A Agf | g2g gfe | dBG BAG :|
|: AaA g2g | fed edB | AaA g3 | BAG BAG |
   AaA g2g | fed edB | ABc Bcd | cde dBG :|
%
|: EAA ABc | B2A A2G | EAA ABc | B2B BAG |
   EAA ABc | B2A Agf | g2g gfe | dBG BAG :|
|: AaA g2g | fed edB | AaA g3 | BAG BAG |
   AaA g2g | fed edB | ABc Bcd | cde dBG :|
%
| A6 ||

